html-practice-pages/web-app-images/library.svg

<svg xmlns="http://www.w3.org/2000/svg" viewBox="0 0 640 640"><!--!Font Awesome Free 7.2.0 by @fontawesome - https://fontawesome.com License - https://fontawesome.com/license/free Copyright 2026 Fonticons, Inc.--><path d="M128 128c0-35.3 28.7-64 64-64h256c35.3 0 64 28.7 64 64v417.1c0 25.6-28.5 40.8-49.8 26.6L320 476.8l-142.2 94.9c-21.3 14.2-49.8-1.1-49.8-26.6V128zm64-16c-8.8 0-16 7.2-16 16v387.2L293.4 437c16.1-10.7 37.1-10.7 53.2 0L464 515.2V128c0-8.8-7.2-16-16-16H192z"/></svg>

<svg xmlns="http://www.w3.org/2000/svg" viewBox="0 0 640 640"><!--!Font Awesome Free 7.2.0 by @fontawesome - https://fontawesome.com License - https://fontawesome.com/license/free Copyright 2026 Fonticons, Inc.--><path d="M128 128C128 92.7 156.7 64 192 64L448 64C483.3 64 512 92.7 512 128L512 545.1C512 570.7 483.5 585.9 462.2 571.7L320 476.8L177.8 571.7C156.5 585.9 128 570.6 128 545.1L128 128zM192 112C183.2 112 176 119.2 176 128L176 515.2L293.4 437C309.5 426.3 330.5 426.3 346.6 437L464 515.2L464 128C464 119.2 456.8 112 448 112L192 112z"/></svg>
